brandFactory_export/2.Regular/(2)AI_Inteligencia Artificial_2Regular.svg

<?xml version="1.0" encoding="UTF-8"?>
<svg width="24px" height="24px" viewBox="0 0 24 24" version="1.1" xmlns="http://www.w3.org/2000/svg" xmlns:xlink="http://www.w3.org/1999/xlink">
    <title>2.Regular/(2)AI_Inteligencia Artificial_2Regular</title>
    <g id="Symbols" stroke="none" stroke-width="1" fill="none" fill-rule="evenodd">
        <g id="2.Regular/(2)AI_Inteligencia-Artificial_2Regular" fill="#5CB615" fill-rule="nonzero">
            <path d="M8.97310924,9.15294118 C8.97310924,9.42521008 8.74789916,9.64369748 8.47563025,9.64369748 C8.20336134,9.64369748 7.97815126,9.42521008 7.97478992,9.15294118 C7.97478992,8.88067227 8.2,8.66218487 8.47563025,8.66218487 C8.57983193,8.66218487 8.67394958,8.70252101 8.75798319,8.75966387 C8.77815126,8.78319328 8.78823529,8.81344538 8.81176471,8.83361345 C8.83193277,8.85042017 8.85546218,8.8605042 8.87563025,8.87394958 C8.93277311,8.95462185 8.97310924,9.0487395 8.97310924,9.15294118 M17.4268908,16.3462185 L17.4134454,22.1478992 L8.94621849,22.1478992 L8.94621849,19.4521008 C5.07731092,19.4521008 5.37647059,17.405042 5.37647059,17.405042 L5.33613445,14.6722689 L2.5092437,13.9361345 C3.27563025,13.1428571 3.93781513,12.2487395 4.47226891,11.2840336 C4.9394958,10.4302521 5.24201681,9.49243697 5.29915966,8.52436975 C5.53445378,4.47394958 7.63193277,2.24537815 11.1478992,1.64705882 L11.1478992,5.36806723 L9.23193277,7.33109244 C8.98991597,7.23361345 8.73445378,7.18319328 8.47563025,7.18319328 C7.37310924,7.18319328 6.4789916,8.06386555 6.4789916,9.14957983 C6.4789916,10.2352941 7.37310924,11.1193277 8.47563025,11.1193277 C9.57478992,11.1193277 10.4722689,10.2352941 10.4722689,9.14957983 C10.4722689,8.87058824 10.4117647,8.60504202 10.3042017,8.36302521 L12.2168067,6.40336134 L14.3176471,6.40336134 C14.4756303,6.83697479 14.7781513,7.2 15.1747899,7.43529412 L13.8201681,11.1159664 C12.8184874,11.2201681 12.0319328,12.0470588 12.0319328,13.0655462 C12.0319328,14.1512605 12.9260504,15.0352941 14.0285714,15.0352941 C14.8621849,15.0352941 15.5781513,14.5243697 15.8773109,13.805042 L20.1764706,13.805042 C19.5378151,14.9478992 18.6134454,15.7915966 17.4268908,16.3462185 M16.189916,6.24201681 C15.9176471,6.24201681 15.692437,6.02352941 15.692437,5.7512605 C15.692437,5.4789916 15.9176471,5.2605042 16.189916,5.2605042 C16.4655462,5.2605042 16.6907563,5.48235294 16.6907563,5.7512605 C16.6907563,6.02352941 16.4655462,6.24201681 16.189916,6.24201681 M14.0252101,12.5714286 C14.3008403,12.5714286 14.5226891,12.7932773 14.5226891,13.0655462 C14.5226891,13.3378151 14.297479,13.5563025 14.0252101,13.5563025 C13.7529412,13.5563025 13.5277311,13.3378151 13.5277311,13.0655462 C13.5277311,12.7932773 13.7495798,12.5747899 14.0252101,12.5714286 M21.1680672,9.31428571 C21.1680672,10.4504202 21.0201681,11.4453782 20.7613445,12.3260504 L15.8739496,12.3260504 C15.7428571,12.0134454 15.5310924,11.7378151 15.2621849,11.5294118 L16.6907563,7.65042017 C17.5512605,7.42857143 18.189916,6.66554622 18.189916,5.7512605 C18.189916,4.66554622 17.2957983,3.78151261 16.1932773,3.78151261 C15.389916,3.78151261 14.7008403,4.25210084 14.3848739,4.92773109 L12.6470588,4.92773109 L12.6470588,1.49243697 C12.8386555,1.48571429 13.0268908,1.47563025 13.2252101,1.47563025 C18.2403361,1.47563025 21.1680672,3.97647059 21.1680672,9.31428571 M13.2184874,0 C7.46386555,0 4.11932773,2.99831933 3.80336134,8.43697479 C3.75966387,9.14621849 3.54453782,9.86890756 3.15462185,10.5781513 C2.68067227,11.4319328 2.09579832,12.2184874 1.42016807,12.9210084 C1.05714286,13.297479 0.92605042,13.8386555 1.07058824,14.3394958 C1.21848739,14.8436975 1.61848739,15.2302521 2.12941176,15.3613445 L3.85714286,15.8117647 L3.88067227,17.3579832 C3.84705882,18.1277311 4.11596639,18.8806723 4.63361345,19.4554622 C5.26218487,20.1680672 6.20672269,20.6252101 7.45378151,20.8201681 L7.45378151,22.1478992 C7.45378151,22.9613445 8.12268908,23.6235804 8.94957983,23.6235804 L17.4134454,23.6235804 C18.2336134,23.6302521 18.902521,22.9714286 18.9092437,22.1512605 L18.9226891,17.2168067 C20.7882353,16.0537815 22.6672269,13.7714286 22.6672269,9.31428571 C22.6638655,3.39495798 19.2218487,0 13.2184874,0" id="(2)AI_Inteligencia-Artificial_2Regular"></path>
        </g>
    </g>
</svg>

<svg width="24" height="24" viewBox="0 0 24 24" xmlns="http://www.w3.org/2000/svg"><path d="M8.973 9.153a.5.5 0 01-.998 0c0-.272.225-.49.5-.49.105 0 .199.04.283.097.02.023.03.053.054.074.02.016.043.027.064.04.057.08.097.175.097.279m8.454 7.193l-.014 5.802H8.946v-2.696c-3.869 0-3.57-2.047-3.57-2.047l-.04-2.733-2.827-.736a12.637 12.637 0 001.963-2.652c.467-.854.77-1.792.827-2.76.235-4.05 2.333-6.279 5.849-6.877v3.721L9.232 7.331a2.02 2.02 0 00-.756-.148c-1.103 0-1.997.88-1.997 1.967 0 1.085.894 1.97 1.997 1.97 1.099 0 1.996-.885 1.996-1.97 0-.28-.06-.545-.168-.787l1.913-1.96h2.1c.159.434.461.797.858 1.032l-1.355 3.681c-1.002.104-1.788.931-1.788 1.95 0 1.085.894 1.97 1.997 1.97.833 0 1.55-.512 1.848-1.231h4.3c-.64 1.143-1.564 1.987-2.75 2.541M16.19 6.242a.495.495 0 01-.498-.49c0-.273.226-.491.498-.491.276 0 .5.221.5.49 0 .273-.224.491-.5.491m-2.165 6.33c.276 0 .498.221.498.494 0 .272-.226.49-.498.49a.495.495 0 01-.497-.49c0-.273.222-.491.497-.495m7.143-3.257c0 1.136-.148 2.131-.407 3.012h-4.887a1.979 1.979 0 00-.612-.797l1.429-3.879c.86-.221 1.499-.984 1.499-1.899 0-1.085-.894-1.97-1.997-1.97-.803 0-1.492.471-1.808 1.147h-1.738V1.492c.192-.006.38-.016.578-.016 5.015 0 7.943 2.5 7.943 7.838M13.218 0C7.464 0 4.12 2.998 3.803 8.437c-.043.71-.258 1.432-.648 2.141a11.283 11.283 0 01-1.735 2.343 1.46 1.46 0 00-.35 1.418c.148.505.548.891 1.06 1.022l1.727.45.024 1.547a2.94 2.94 0 00.753 2.097c.628.713 1.573 1.17 2.82 1.365v1.328c0 .813.669 1.476 1.496 1.476h8.463c.82.006 1.49-.653 1.496-1.473l.014-4.934c1.865-1.163 3.744-3.446 3.744-7.903C22.664 3.395 19.222 0 13.218 0" fill="#5CB615" fill-rule="nonzero"/></svg>
